src/assets/payment-apps/mercado-pago.svg

<svg width="32" height="33" viewBox="0 0 32 33" fill="none" xmlns="http://www.w3.org/2000/svg">
<circle cx="16" cy="16.5" r="16" fill="#00BCFF"/>
<path d="M16.0037 9.84033C10.584 9.84033 6.19141 12.6508 6.19141 16.118C6.19141 19.5851 10.5847 22.6672 16.0037 22.6672C21.4228 22.6672 25.8161 19.5844 25.8161 16.118C25.8161 12.6515 21.4228 9.84033 16.0037 9.84033Z" fill="#00BCFF"/>
<path d="M12.8094 14.1757C12.8046 14.1854 12.7085 14.2843 12.7712 14.3644C12.923 14.558 13.3916 14.6694 13.8658 14.5628C14.1478 14.4995 14.5099 14.2119 14.8602 13.934C15.2397 13.6325 15.6165 13.3303 15.9953 13.2105C16.3964 13.0831 16.6533 13.1374 16.8232 13.1889C17.0092 13.2446 17.2285 13.3672 17.5781 13.629C18.2361 14.1234 20.8809 16.4325 21.3384 16.8316C21.7061 16.6651 23.4602 15.9569 25.683 15.4667C25.4894 14.2815 24.777 13.1513 23.683 12.2642C22.1587 12.9041 20.172 13.2878 18.3503 12.3986C18.3413 12.3951 17.3553 11.9285 16.3831 11.9515C14.9382 11.9849 14.3122 12.6103 13.6499 13.2725L12.8108 14.1771L12.8094 14.1757Z" fill="white"/>
<path d="M21.2317 17.0835C21.2004 17.0557 18.1211 14.3615 17.4233 13.8371C17.0195 13.5342 16.7952 13.4569 16.5592 13.427C16.4366 13.4109 16.2667 13.4339 16.1483 13.4666C15.8238 13.5551 15.3997 13.8385 15.023 14.1372C14.6331 14.4478 14.2654 14.7403 13.9235 14.8169C13.4876 14.9144 12.9548 14.7995 12.7118 14.6351C12.6136 14.569 12.544 14.4924 12.5106 14.4151C12.4207 14.2069 12.5865 14.0404 12.6136 14.0126L13.4632 13.0934C13.5621 12.9952 13.6616 12.8963 13.7633 12.7988C13.4889 12.8344 13.2355 12.9047 12.989 12.9729C12.6812 13.0593 12.3845 13.1414 12.0851 13.1414C11.9597 13.1414 11.2899 13.0314 11.1624 12.9973C10.393 12.787 9.52181 12.5816 8.51349 12.1108C7.30532 13.0098 6.51844 14.1143 6.28516 15.3531C6.45855 15.399 6.91327 15.5028 7.03095 15.5285C9.76484 16.1365 10.6165 16.7625 10.7711 16.8934C10.9382 16.7075 11.1798 16.5898 11.4486 16.5898C11.7515 16.5898 12.0238 16.7423 12.1895 16.977C12.3462 16.853 12.5621 16.7472 12.8413 16.7479C12.9681 16.7479 13.0997 16.7715 13.2327 16.8161C13.5412 16.922 13.7006 17.1274 13.7828 17.3133C13.8859 17.2666 14.0133 17.2318 14.163 17.2325C14.3106 17.2325 14.4638 17.266 14.6177 17.3328C15.1219 17.5494 15.1999 18.0445 15.1546 18.4177C15.1908 18.4135 15.227 18.4122 15.2633 18.4122C15.8607 18.4122 16.3468 18.8982 16.3468 19.4964C16.3468 19.6816 16.2994 19.8557 16.2173 20.0082C16.3802 20.0994 16.7945 20.3062 17.1587 20.2603C17.4491 20.2234 17.5598 20.1245 17.5988 20.0681C17.626 20.0298 17.6545 19.9845 17.6281 19.9525L16.8565 19.096C16.8565 19.096 16.7298 18.9755 16.7716 18.9295C16.8147 18.8822 16.8934 18.9504 16.9491 18.9964C17.3419 19.3244 17.821 19.8188 17.821 19.8188C17.8293 19.8244 17.8607 19.887 18.0382 19.9184C18.1907 19.9455 18.4609 19.9302 18.6482 19.7763C18.6949 19.7373 18.7422 19.6893 18.7826 19.6391C18.7791 19.6419 18.7764 19.6447 18.7736 19.6461C18.9713 19.3933 18.7513 19.1384 18.7513 19.1384L17.8509 18.1273C17.8509 18.1273 17.7221 18.0083 17.766 17.9602C17.8049 17.9184 17.8878 17.9811 17.9442 18.0285C18.229 18.2666 18.6322 18.6712 19.018 19.0493C19.0939 19.1043 19.433 19.3139 19.8822 19.0194C20.1551 18.8404 20.2095 18.6204 20.2018 18.4553C20.183 18.236 20.0117 18.0793 20.0117 18.0793L18.7819 16.8426C18.7819 16.8426 18.6517 16.7318 18.6977 16.6754C18.7353 16.6281 18.8195 16.6963 18.8752 16.7423C19.2666 17.0703 20.3278 18.0431 20.3278 18.0431C20.3432 18.0535 20.7094 18.3147 21.1628 18.0264C21.325 17.9226 21.4281 17.7666 21.4371 17.5849C21.4525 17.2701 21.231 17.0835 21.231 17.0835H21.2317Z" fill="white"/>
<path d="M15.264 18.6506C15.0732 18.6485 14.8642 18.762 14.8371 18.7453C14.8218 18.7355 14.8489 18.6589 14.8663 18.6143C14.8851 18.5705 15.1358 17.8149 14.5237 17.5524C14.0551 17.3512 13.7682 17.5775 13.67 17.6798C13.6442 17.7063 13.6324 17.7042 13.6296 17.6708C13.6199 17.5343 13.5593 17.1666 13.1547 17.0427C12.5767 16.8658 12.2049 17.269 12.1109 17.4152C12.0684 17.0858 11.7898 16.8303 11.4493 16.8296C11.0789 16.8296 10.778 17.129 10.7773 17.5002C10.7773 17.8706 11.0775 18.1715 11.4486 18.1715C11.629 18.1715 11.7919 18.0997 11.9124 17.9841C11.9166 17.9876 11.918 17.9939 11.9159 18.0064C11.8873 18.1729 11.8358 18.7752 12.4674 19.021C12.7209 19.1192 12.936 19.0461 13.1143 18.9214C13.1672 18.8838 13.1763 18.8999 13.1686 18.95C13.1456 19.1053 13.1749 19.4367 13.6401 19.6255C13.9938 19.7696 14.2034 19.6227 14.3413 19.4952C14.4012 19.4409 14.4172 19.45 14.4207 19.5342C14.4374 19.9827 14.8099 20.3392 15.2626 20.3399C15.7291 20.3399 16.1072 19.9632 16.1072 19.4973C16.1072 19.0308 15.7298 18.6575 15.2633 18.6526L15.264 18.6506Z" fill="white"/>
<path d="M16.001 9.57959C10.4783 9.57959 6.00139 12.5168 6.00139 16.1198C6.00139 16.2131 6 16.47 6 16.5027C6 20.3257 9.91282 23.421 15.9997 23.421C22.0865 23.421 26 20.3257 26 16.5034V16.1198C26 12.5168 21.5231 9.57959 16.001 9.57959ZM25.5495 15.3948C23.3761 15.8781 21.755 16.5793 21.349 16.7604C20.4006 15.9324 18.2085 14.0265 17.6145 13.5808C17.2754 13.3253 17.0435 13.1909 16.8402 13.1303C16.7489 13.1024 16.6229 13.0711 16.4606 13.0711C16.3095 13.0711 16.1473 13.0983 15.9781 13.1526C15.5944 13.2744 15.2121 13.5781 14.8423 13.8719L14.8235 13.8872C14.4788 14.1609 14.123 14.4443 13.8535 14.5042C13.7358 14.5307 13.6146 14.5446 13.4942 14.5446C13.192 14.5446 12.9211 14.4569 12.8194 14.3273C12.8027 14.3057 12.8138 14.2709 12.8528 14.2215L12.8577 14.2145L13.6926 13.3155C14.3465 12.6617 14.9635 12.0447 16.3847 12.012C16.4084 12.0113 16.4321 12.0106 16.4558 12.0106C17.3401 12.0113 18.2245 12.4068 18.3241 12.4534C19.1534 12.858 20.01 13.0635 20.87 13.0641C21.7648 13.0641 22.6881 12.8434 23.6589 12.397C24.6727 13.2494 25.3447 14.2765 25.5495 15.3955V15.3948ZM16.0024 9.96537C18.9341 9.96537 21.5566 10.8059 23.3204 12.1289C22.4681 12.498 21.6554 12.6839 20.8713 12.6839C20.0691 12.6832 19.2676 12.4904 18.4891 12.1108C18.448 12.0913 17.4717 11.6311 16.4558 11.6304C16.4293 11.6304 16.4021 11.6304 16.3757 11.631C15.1821 11.6589 14.5095 12.083 14.0575 12.4541C13.6181 12.4653 13.2386 12.5711 12.9009 12.6651C12.5994 12.7487 12.3396 12.8211 12.0861 12.8211C11.9817 12.8211 11.7937 12.8114 11.777 12.8107C11.4859 12.8016 10.0235 12.443 8.85575 12.0022C10.6154 10.7516 13.1655 9.96467 16.0031 9.96467L16.0024 9.96537ZM8.50897 12.264C9.72828 12.7626 11.208 13.1484 11.676 13.1783C11.8062 13.1867 11.9455 13.202 12.0847 13.202C12.3953 13.202 12.7052 13.115 13.0046 13.0314C13.1815 12.982 13.3772 12.9277 13.5826 12.8887C13.5276 12.9423 13.4726 12.9973 13.4176 13.0523L12.5701 13.9694C12.5033 14.037 12.3584 14.2166 12.4538 14.4381C12.4914 14.5272 12.5687 14.6128 12.6766 14.6853C12.8786 14.821 13.2407 14.9137 13.5763 14.9137C13.7038 14.9137 13.8249 14.9011 13.935 14.8761C14.2908 14.7967 14.6633 14.4993 15.0582 14.1853C15.3729 13.9353 15.82 13.6177 16.1626 13.5244C16.2587 13.4987 16.3757 13.482 16.4704 13.482C16.4989 13.482 16.5254 13.4834 16.5498 13.4868C16.7754 13.5154 16.994 13.592 17.3847 13.8851C18.0811 14.4081 21.1603 17.1023 21.1903 17.1288C21.1924 17.1302 21.3887 17.3001 21.3748 17.5814C21.3672 17.7388 21.2801 17.878 21.1283 17.9748C20.9967 18.0584 20.8616 18.1009 20.7244 18.1009C20.5183 18.1009 20.3769 18.0041 20.3672 17.9978C20.356 17.9888 19.3011 17.0208 18.9125 16.6956C18.8505 16.6441 18.7906 16.5981 18.7301 16.5981C18.6973 16.5981 18.6688 16.6121 18.6493 16.6364C18.588 16.7117 18.6562 16.8161 18.737 16.8843L19.9696 18.1239C19.9696 18.1239 20.1235 18.2673 20.1402 18.4574C20.1499 18.6628 20.0517 18.8348 19.8477 18.9685C19.7022 19.0646 19.5552 19.1127 19.4111 19.1127C19.2217 19.1127 19.0887 19.0263 19.0594 19.0061L18.8826 18.8321C18.5595 18.5138 18.2259 18.1851 17.9815 17.9818C17.9216 17.9324 17.8582 17.8864 17.7976 17.8864C17.7677 17.8864 17.7405 17.8975 17.7196 17.9198C17.6918 17.9505 17.6723 18.0062 17.7419 18.0988C17.7698 18.1371 17.8039 18.1684 17.8039 18.1684L18.7029 19.1788C18.7099 19.1879 18.8881 19.3996 18.7231 19.6099L18.6911 19.6503C18.6639 19.6795 18.6354 19.7074 18.6075 19.731C18.4543 19.8571 18.2496 19.8703 18.1681 19.8703C18.1242 19.8703 18.0831 19.8668 18.0462 19.8599C17.9578 19.8439 17.8979 19.8195 17.8687 19.7854L17.8575 19.7742C17.8088 19.7234 17.3555 19.2603 16.9801 18.9476C16.9307 18.9059 16.8687 18.8543 16.8053 18.8543C16.774 18.8543 16.7461 18.8669 16.7239 18.8905C16.65 18.972 16.7615 19.0932 16.8088 19.1378L17.5755 19.9838C17.5748 19.9915 17.5651 20.0089 17.5469 20.0354C17.5191 20.0737 17.4265 20.1663 17.1479 20.2011C17.1145 20.2053 17.0797 20.2074 17.0463 20.2074C16.7594 20.2074 16.453 20.0681 16.2949 19.9845C16.3666 19.8327 16.4042 19.6656 16.4042 19.4985C16.4042 18.8669 15.8917 18.3537 15.2601 18.353C15.2469 18.353 15.2323 18.353 15.219 18.3537C15.2392 18.0654 15.1988 17.5194 14.6383 17.2792C14.4767 17.2095 14.3159 17.1733 14.1599 17.1733C14.0373 17.1733 13.9196 17.1942 13.8089 17.2367C13.6926 17.0111 13.4997 16.8467 13.249 16.7611C13.1098 16.713 12.9719 16.6887 12.8382 16.6887C12.6049 16.6887 12.3897 16.7576 12.1983 16.8934C12.0144 16.665 11.7373 16.5299 11.4455 16.5299C11.1899 16.5299 10.9441 16.6323 10.7624 16.8126C10.5235 16.6302 9.57648 16.0285 7.04105 15.4526C6.91988 15.4255 6.64482 15.3468 6.47213 15.296C6.70959 14.1581 7.4331 13.1185 8.50548 12.2654L8.50897 12.264ZM13.2121 18.8641L13.185 18.8397H13.1571C13.1348 18.8397 13.1112 18.8488 13.0798 18.871C12.9503 18.9623 12.8271 19.0061 12.701 19.0061C12.6314 19.0061 12.5604 18.9922 12.4893 18.9651C11.9016 18.736 11.9476 18.1817 11.9768 18.0145C11.981 17.9804 11.9726 17.9546 11.951 17.9365L11.9093 17.9024L11.8703 17.9393C11.7554 18.05 11.6057 18.1099 11.4483 18.1099C11.1119 18.1099 10.8376 17.8363 10.8383 17.4992C10.8383 17.1629 11.1126 16.8892 11.4497 16.8899C11.754 16.8899 12.013 17.1183 12.0513 17.4226L12.0722 17.5863L12.162 17.4477C12.1718 17.4317 12.419 17.0584 12.8723 17.0591C12.9587 17.0591 13.0478 17.0731 13.1376 17.1009C13.499 17.2109 13.5603 17.5389 13.5694 17.6754C13.5756 17.7548 13.6327 17.759 13.6432 17.759C13.6745 17.759 13.6975 17.7395 13.7135 17.7221C13.7818 17.651 13.9301 17.5327 14.1627 17.5327C14.2692 17.5327 14.382 17.5584 14.499 17.6086C15.0735 17.8551 14.8131 18.5848 14.8103 18.5925C14.7608 18.7137 14.7587 18.7666 14.8054 18.7979L14.8277 18.8084H14.8444C14.8702 18.8084 14.9022 18.7972 14.9558 18.7791C15.0338 18.752 15.1515 18.7116 15.2622 18.7116C15.6946 18.7165 16.0463 19.0688 16.0463 19.4957C16.0463 19.9274 15.694 20.2784 15.2615 20.2784C14.8388 20.2784 14.4948 19.949 14.4795 19.5305C14.4781 19.4943 14.4746 19.3996 14.3939 19.3996C14.3611 19.3996 14.3319 19.4198 14.2992 19.4497C14.2058 19.5361 14.0875 19.6231 13.9148 19.6231C13.8361 19.6231 13.7511 19.605 13.6613 19.5681C13.2149 19.387 13.2087 19.0806 13.2268 18.9574C13.2316 18.9247 13.233 18.8905 13.2108 18.8634L13.2121 18.8641ZM16.0024 22.2679C10.692 22.2679 6.38717 19.5138 6.38717 16.117C6.38717 15.9805 6.39692 15.8447 6.41015 15.7103C6.45263 15.7207 6.87462 15.821 6.96167 15.8412C9.55141 16.4164 10.4072 17.0146 10.5521 17.1281C10.5033 17.2458 10.4776 17.3725 10.4776 17.5006C10.4776 18.0361 10.9128 18.472 11.4476 18.472C11.5075 18.472 11.5674 18.4665 11.6258 18.4553C11.7066 18.8495 11.9643 19.1482 12.3577 19.3014C12.4726 19.3453 12.5889 19.3682 12.7038 19.3682C12.7776 19.3682 12.8521 19.3592 12.9245 19.3411C12.9977 19.5256 13.1606 19.7561 13.5269 19.9044C13.655 19.956 13.7832 19.9831 13.9078 19.9831C14.0095 19.9831 14.109 19.965 14.2038 19.9302C14.3792 20.3571 14.7964 20.6405 15.2615 20.6405C15.57 20.6405 15.866 20.5151 16.0818 20.293C16.2664 20.3961 16.6563 20.582 17.0504 20.5827C17.1013 20.5827 17.1486 20.5792 17.1974 20.5736C17.5887 20.5242 17.7705 20.371 17.854 20.2519C17.8694 20.231 17.8826 20.2087 17.8944 20.1858C17.9864 20.2122 18.088 20.2338 18.205 20.2345C18.4188 20.2345 18.6235 20.1614 18.831 20.011C19.0351 19.864 19.1799 19.6531 19.2008 19.4734C19.2008 19.4713 19.2008 19.4685 19.2015 19.4657C19.2704 19.4797 19.3408 19.4866 19.4111 19.4866C19.6311 19.4866 19.8477 19.4184 20.0545 19.2826C20.4535 19.0215 20.5225 18.6796 20.5162 18.456C20.5865 18.4706 20.6576 18.4783 20.7286 18.4783C20.9347 18.4783 21.138 18.4163 21.3309 18.2931C21.5781 18.135 21.7272 17.8927 21.7501 17.6113C21.7648 17.4198 21.7174 17.2263 21.6171 17.0605C22.2843 16.7729 23.8093 16.2165 25.6052 15.812C25.6128 15.9136 25.617 16.016 25.617 16.1191C25.617 19.5159 21.3121 22.27 16.0024 22.27V22.2679Z" fill="#0A0080"/>
</svg>

<svg width="32" height="33" viewBox="0 0 32 33" fill="none" xmlns="http://www.w3.org/2000/svg"><circle cx="16" cy="16.5" r="16" fill="#00BCFF"/><path d="M16.004 9.84c-5.42 0-9.813 2.81-9.813 6.278s4.394 6.55 9.813 6.55 9.812-3.084 9.812-6.55-4.393-6.278-9.812-6.278" fill="#00BCFF"/><path d="M12.81 14.176c-.005.01-.101.108-.039.188.152.194.62.305 1.095.199.282-.064.644-.351.994-.629.38-.301.757-.604 1.135-.723.401-.128.658-.074.828-.022.186.056.406.178.755.44.658.494 3.303 2.804 3.76 3.203.368-.167 2.122-.875 4.345-1.365-.194-1.186-.906-2.316-2-3.203-1.524.64-3.511 1.024-5.333.135-.009-.004-.995-.47-1.967-.447-1.445.033-2.07.658-2.733 1.32l-.84.905z" fill="#fff"/><path d="M21.232 17.084c-.032-.028-3.11-2.722-3.809-3.247-.403-.303-.628-.38-.864-.41a1.2 1.2 0 0 0-.41.04c-.325.088-.75.371-1.126.67-.39.31-.758.603-1.1.68-.435.097-.968-.018-1.211-.182a.54.54 0 0 1-.201-.22c-.09-.208.075-.375.103-.402l.85-.92q.147-.148.3-.294c-.275.035-.528.106-.775.174-.308.086-.605.168-.904.168-.125 0-.795-.11-.923-.144-.769-.21-1.64-.415-2.649-.886-1.208.899-1.995 2.003-2.228 3.242.174.046.628.15.746.175 2.734.609 3.586 1.234 3.74 1.365a.9.9 0 0 1 .678-.303c.303 0 .575.152.74.387.157-.124.373-.23.652-.23q.192 0 .392.07a.9.9 0 0 1 .55.496.9.9 0 0 1 .38-.08q.222 0 .455.1c.504.216.582.712.537 1.085a1.085 1.085 0 0 1 1.063 1.59c.162.091.576.298.94.252.291-.037.402-.136.44-.192.028-.038.056-.084.03-.116l-.771-.856s-.127-.12-.085-.166c.043-.048.121.02.177.066.393.328.872.823.872.823.008.005.04.068.217.1.153.026.423.011.61-.143a1 1 0 0 0 .135-.137l-.01.007c.198-.253-.022-.508-.022-.508l-.9-1.01s-.129-.12-.085-.168c.039-.042.122.021.178.069.285.238.688.642 1.074 1.02.076.055.415.265.864-.03.273-.179.327-.399.32-.564a.65.65 0 0 0-.19-.376l-1.23-1.236s-.13-.111-.084-.168c.037-.047.122.021.177.067.392.328 1.453 1.301 1.453 1.301.015.01.381.272.835-.017a.56.56 0 0 0 .274-.441c.015-.315-.206-.502-.206-.502" fill="#fff"/><path d="M15.264 18.65c-.19-.002-.4.112-.427.095-.015-.01.012-.086.03-.13s.269-.8-.343-1.063c-.469-.2-.756.026-.854.128q-.038.04-.04-.01c-.01-.136-.07-.503-.475-.627-.578-.177-.95.226-1.044.372a.67.67 0 1 0-.662.757c.18 0 .343-.072.463-.188q.007.005.004.022c-.029.167-.08.77.551 1.015.254.098.469.025.647-.1.053-.037.062-.021.055.029-.023.155.006.487.471.675.354.145.563-.002.701-.13.06-.054.076-.045.08.04a.84.84 0 0 0 .842.805.843.843 0 1 0 0-1.687z" fill="#fff"/><path d="M16.001 9.58c-5.523 0-10 2.937-10 6.54L6 16.503c0 3.823 3.913 6.918 10 6.918s10-3.095 10-6.918v-.383c0-3.603-4.477-6.54-9.999-6.54m9.548 5.815a23 23 0 0 0-4.2 1.365c-.948-.828-3.14-2.734-3.735-3.18-.339-.255-.57-.39-.774-.45a1.3 1.3 0 0 0-.38-.059q-.227 0-.482.082c-.384.121-.766.425-1.136.719l-.019.015c-.344.274-.7.557-.97.617q-.177.04-.359.04c-.302 0-.573-.087-.675-.217q-.024-.031.034-.105l.005-.008.835-.899c.654-.653 1.27-1.27 2.692-1.303l.07-.001c.885 0 1.77.396 1.87.442.828.405 1.685.61 2.545.611.895 0 1.818-.22 2.789-.667 1.014.852 1.686 1.88 1.89 2.999zm-9.547-5.43c2.932 0 5.555.84 7.318 2.164-.852.369-1.665.555-2.449.555a5.4 5.4 0 0 1-2.382-.573c-.041-.02-1.017-.48-2.033-.48h-.08c-1.194.028-1.867.452-2.319.823-.439.011-.818.117-1.156.211-.302.084-.561.156-.815.156-.104 0-.292-.01-.309-.01-.291-.01-1.753-.368-2.921-.809 1.76-1.25 4.31-2.037 7.147-2.037M8.51 12.264c1.22.499 2.699.884 3.167.914.13.009.27.024.409.024.31 0 .62-.087.92-.17.176-.05.372-.104.578-.143l-.165.163-.848.917c-.067.068-.212.248-.116.47a.6.6 0 0 0 .223.246c.202.136.564.229.9.229q.192 0 .358-.038c.356-.08.728-.377 1.123-.69.315-.25.762-.568 1.105-.662a1.3 1.3 0 0 1 .307-.042l.08.005c.225.028.444.105.835.398.696.523 3.775 3.217 3.805 3.244a.6.6 0 0 1 .185.452.5.5 0 0 1-.247.394.75.75 0 0 1-.404.126c-.206 0-.347-.097-.357-.103-.011-.01-1.066-.977-1.454-1.302-.062-.052-.122-.098-.183-.098a.1.1 0 0 0-.08.038c-.062.076.006.18.087.248l1.233 1.24s.154.143.17.333q.015.31-.292.511a.8.8 0 0 1-.437.145.64.64 0 0 1-.352-.107l-.176-.174c-.323-.318-.657-.647-.901-.85-.06-.05-.124-.096-.184-.096a.1.1 0 0 0-.078.034c-.028.03-.048.086.022.179.028.038.062.07.062.07l.899 1.01c.007.009.185.22.02.43l-.032.041a1 1 0 0 1-.083.081.7.7 0 0 1-.44.14 1 1 0 0 1-.122-.011q-.133-.023-.177-.075l-.011-.01a14 14 0 0 0-.878-.827c-.05-.042-.111-.094-.175-.094a.11.11 0 0 0-.081.037c-.074.081.038.202.085.247l.767.846a.2.2 0 0 1-.03.051c-.027.039-.12.131-.398.166a1 1 0 0 1-.102.006c-.287 0-.593-.139-.751-.223a1.142 1.142 0 0 0-1.076-1.63c.02-.289-.02-.835-.58-1.075a1.2 1.2 0 0 0-.48-.106q-.184 0-.35.064a.97.97 0 0 0-.56-.476 1.3 1.3 0 0 0-.41-.072q-.353 0-.64.204a.97.97 0 0 0-.754-.363.97.97 0 0 0-.683.283c-.239-.183-1.186-.784-3.721-1.36a13 13 0 0 1-.569-.157c.238-1.138.961-2.177 2.033-3.03zm4.703 6.6-.027-.024h-.028q-.032-.001-.077.031a.65.65 0 0 1-.379.135.6.6 0 0 1-.212-.04c-.587-.23-.541-.784-.512-.951q.006-.051-.026-.079l-.042-.034-.039.037a.61.61 0 1 1-.42-1.05.61.61 0 0 1 .601.534l.021.163.09-.138c.01-.016.257-.39.71-.389q.13 0 .266.042c.361.11.422.438.431.574.007.08.064.084.074.084.031 0 .054-.02.07-.037a.62.62 0 0 1 .45-.19q.16 0 .336.077c.574.246.314.976.311.983-.05.122-.051.175-.005.206l.023.01h.016c.026 0 .058-.01.112-.029a1 1 0 0 1 .306-.067.79.79 0 0 1 .784.784.785.785 0 0 1-1.566.035c-.002-.037-.005-.131-.086-.131-.033 0-.062.02-.095.05a.55.55 0 0 1-.384.173.7.7 0 0 1-.254-.055c-.446-.181-.452-.487-.434-.61.005-.033.006-.067-.016-.095zm2.79 3.404c-5.31 0-9.615-2.754-9.615-6.151q.002-.205.023-.407l.552.131c2.59.575 3.445 1.174 3.59 1.287a.972.972 0 0 0 1.074 1.327c.08.394.338.693.732.846a.9.9 0 0 0 .567.04c.073.185.236.415.602.563q.193.079.38.08a.9.9 0 0 0 .297-.054 1.146 1.146 0 0 0 1.878.363c.184.103.574.289.968.29q.076 0 .147-.01c.392-.049.573-.202.657-.321l.04-.066c.092.026.194.048.311.049.214 0 .419-.074.626-.224.204-.147.349-.358.37-.538v-.007q.105.02.21.02c.22 0 .437-.068.643-.203.4-.262.469-.603.462-.827q.106.022.213.022.31 0 .602-.185a.88.88 0 0 0 .42-.682.93.93 0 0 0-.134-.55c.667-.288 2.192-.844 3.988-1.249q.012.153.012.307c0 3.397-4.305 6.151-9.615 6.151z" fill="#0A0080"/></svg>
